X:1
T:Benghazi, 98.98 D
T:Benghazi, 98.98 D
T:A. J. Robertson, 1902
T:Public Domain Courtesy of the Cyber Hymnal™
C:A. J. Robertson, 1902
Z:Public Domain
Z:Courtesy of the Cyber Hymnal™
%%score ( 1 2 ) ( 3 4 )
L:1/8
Q:1/4=105
M:4/4
K:G
V:1 treble 
V:2 treble 
V:3 bass 
V:4 bass 
V:1
 [B,D]2 | [DG]>[DF] [DG]>[DA] [DB]2 D2 | [CF]2 [CE]4 [CE]2 | [B,D]>[CE] [CF]>[B,G] [DA]2 [Dd]2 | %4
 [DB]6 [B,D]2 | [DG]>[DF] [DG]>[DA] [DB]2 D2 | [CF]2 [CE]4 [CE]2 | %7
 [B,D]>[CE] [CF]>[B,G] [CA]2 [DB]2 | [B,G]6 [DB]2 | [Gd]>[Ge] [Gd]>[Gc] [GB]2 [FA]2 | %10
 [GB]2 [Gd]4 [GB]2 | [Gd]>[Ge] [Gd]>[Gc] [DB]2 [^CG]2 | [DA]6 [B,D]2 | %13
 [DG]>[DF] [DG]>[DA] [DB]2 D2 | [CF]2 [CE]4 [CE]2 | [B,D]>[CE] [CF]>[B,G] [CA]2 [DB]2 | [B,G]6 |] %17
V:2
 x2 | x6 D2 | x8 | x8 | x8 | x6 D2 | x8 | x8 | x8 | x8 | x8 | x8 | x8 | x6 D2 | x8 | x8 | x6 |] %17
V:3
 [G,,G,]2 | [G,,B,]>[A,,A,] [B,,G,]>[D,F,] G,2 [B,,G,]2 | [C,G,]2 [C,G,]4 [C,G,]2 | %3
 [D,G,]>[D,F,] [D,A,]>[D,G,] [D,F,]2 [D,F,]2 | G,6 [G,,G,]2 | %5
 [G,,B,]>[A,,A,] [B,,G,]>[D,F,] G,2 [B,,G,]2 | [C,G,]2 [C,G,]4 [C,G,]2 | %7
 [D,G,]>[D,F,] [D,A,]>[D,G,] [D,F,]2 [D,F,]2 | [G,,G,]6 G,2 | %9
 [G,B,]>[G,C] [G,B,]>[G,E] [G,D]2 [D,D]2 | [G,D]2 [G,B,]4 [G,D]2 | %11
 [G,B,]>[G,C] [G,B,]>[G,A,] G,2 [E,G,]2 | [D,F,]6 [G,,G,]2 | %13
 [G,,B,]>[A,,A,] [B,,G,]>[D,F,] G,2 [B,,G,]2 | [C,G,]2 [C,G,]4 [C,G,]2 | %15
 [D,G,]>[D,F,] [D,A,]>[D,G,] [D,F,]2 [D,F,]2 | [G,,G,]6 |] %17
V:4
 x2 | x4 G,2 x2 | x8 | x8 | G,6 x2 | x4 G,2 x2 | x8 | x8 | x6 G,2 | x8 | x8 | x4 (G,F,) x2 | x8 | %13
 x4 G,2 x2 | x8 | x8 | x6 |] %17

